app/img/our-staging__more-details.svg

<svg width="100" height="100" viewBox="0 0 100 100" fill="none" xmlns="http://www.w3.org/2000/svg">
<circle cx="50" cy="50" r="50" fill="#D1A954"/>
<path d="M64.8169 63.0494L56.1021 54.3346C57.755 52.2939 58.75 49.6996 58.75 46.875C58.75 40.3272 53.4228 35 46.875 35C40.3271 35 35 40.3272 35 46.875C35 53.4229 40.3272 58.7501 46.875 58.7501C49.6996 58.7501 52.2939 57.755 54.3346 56.1022L63.0494 64.817C63.2935 65.061 63.6891 65.061 63.9333 64.817L64.817 63.9332C65.061 63.6891 65.061 63.2934 64.8169 63.0494ZM46.875 56.2501C41.7054 56.2501 37.5 52.0447 37.5 46.875C37.5 41.7054 41.7054 37.5 46.875 37.5C52.0447 37.5 56.2501 41.7054 56.2501 46.875C56.2501 52.0447 52.0447 56.2501 46.875 56.2501Z" fill="white"/>
</svg>

<svg width="100" height="100" fill="none" xmlns="http://www.w3.org/2000/svg"><circle cx="50" cy="50" r="50" fill="#D1A954"/><path d="M64.817 63.05l-8.715-8.715a11.814 11.814 0 002.648-7.46C58.75 40.327 53.423 35 46.875 35S35 40.327 35 46.875 40.327 58.75 46.875 58.75c2.825 0 5.419-.995 7.46-2.648l8.714 8.715c.245.244.64.244.884 0l.884-.884a.625.625 0 000-.884zm-17.942-6.8c-5.17 0-9.375-4.205-9.375-9.375s4.205-9.375 9.375-9.375 9.375 4.205 9.375 9.375-4.205 9.375-9.375 9.375z" fill="#fff"/></svg>
